img/ruler.svg

<svg version="1.1" xmlns="http://www.w3.org/2000/svg" xmlns:xlink="http://www.w3.org/1999/xlink" width="149" height="149"><defs/><g><rect fill="black" stroke="none" x="0" y="0" width="149" height="149"/><g/><path fill="none" stroke="rgb(128,128,128)" paint-order="fill stroke markers" d=" M 10.329951422600043 84.16453715890003 L 139.34097425960007 38.83633994590002 M 10.329951422600043 84.16453715890003 L 16.95967132285124 103.03373995192267" stroke-miterlimit="10" stroke-dasharray=""/><g transform="translate(16.95967132285124,103.03373995192267) rotate(-19.358994175694715,0,0)"><text fill="rgb(128,128,128)" stroke="none" font-family="Arial" font-size="14px" font-style="normal" font-weight="normal" text-decoration="normal" x="0" y="0" text-anchor="middle" dominant-baseline="text-before-edge">0</text></g><path fill="none" stroke="rgb(128,128,128)" paint-order="fill stroke markers" d=" M 19.764552819111362 80.84967720877444 L 23.07941276923696 90.28427860528575 M 29.19915421562268 77.53481725864884 L 32.51401416574828 86.96941865516015 M 38.633755612133996 74.21995730852323 L 41.94861556225959 83.65455870503456 M 48.06835700864532 70.90509735839764 L 51.383216958770916 80.33969875490897 M 57.50295840515663 67.59023740827205 L 62.47524833034503 81.74213950303903 M 66.93755980166796 64.27537745814644 L 70.25241975179355 73.70997885465775 M 76.37216119817927 60.96051750802084 L 79.68702114830486 70.39511890453215 M 85.8067625946906 57.64565755789525 L 89.12162254481619 67.08025895440656 M 95.24136399120191 54.33079760776965 L 98.5562239413275 63.765399004280965 M 104.67596538771323 51.01593765764405 L 111.30568528796442 69.88514045066668" stroke-miterlimit="10" stroke-dasharray=""/><g transform="translate(111.30568528796442,69.88514045066668) rotate(-19.358994175694715,0,0)"><text fill="rgb(128,128,128)" stroke="none" font-family="Arial" font-size="14px" font-style="normal" font-weight="normal" text-decoration="normal" x="0" y="0" text-anchor="middle" dominant-baseline="text-before-edge">100</text></g><path fill="none" stroke="rgb(128,128,128)" paint-order="fill stroke markers" d=" M 114.11056678422455 47.70107770751845 L 117.42542673435014 57.13567910402977 M 123.54516818073587 44.386217757392856 L 126.86002813086147 53.820819153904175 M 132.97976957724717 41.071357807267255 L 136.29462952737276 50.50595920377857" stroke-miterlimit="10" stroke-dasharray=""/></g></svg>

<svg xmlns="http://www.w3.org/2000/svg" width="149" height="149"><path d="M0 0h149v149H0z"/><path fill="none" stroke="gray" paint-order="fill stroke markers" d="m10.33 84.165 129.011-45.329M10.33 84.165l6.63 18.869" stroke-miterlimit="10"/><text fill="gray" font-family="Arial" font-size="14" text-decoration="normal" text-anchor="middle" dominant-baseline="text-before-edge" transform="rotate(-19.359 310.517 1.8)">0</text><path fill="none" stroke="gray" paint-order="fill stroke markers" d="m19.765 80.85 3.314 9.434m6.12-12.75 3.315 9.435m6.12-12.749 3.315 9.435m6.12-12.75 3.314 9.435m6.12-12.75 4.972 14.152m4.463-17.467 3.314 9.435m6.12-12.75 3.315 9.435m6.12-12.75 3.315 9.435m6.12-12.75 3.314 9.435m6.12-12.75 6.63 18.87" stroke-miterlimit="10"/><text fill="gray" font-family="Arial" font-size="14" text-decoration="normal" text-anchor="middle" dominant-baseline="text-before-edge" transform="rotate(-19.359 260.517 -291.343)">100</text><path fill="none" stroke="gray" paint-order="fill stroke markers" d="m114.11 47.701 3.315 9.435m6.12-12.75 3.315 9.435m6.12-12.75 3.315 9.435" stroke-miterlimit="10"/></svg>
